!!!!SEGMENT: pl-wnifc--13846--057_anonim--57-wczera-bula-nedi-tonka.krn
!!!kernsource:
!!!cenid: 18xx:3279
!!!COM: Anonim
!!!COM-rismid: pe30004985
!!!CDT:
!!!CNT:
!!!GTL: Pieśni polskie i ruskie ludu galicyjskiego
!!!OTL: 57. Wczera buła nedi tońka
!!!PDT: 1833
!!!AGN:
!!!SMS-siglum: PL-Wnifc
!!!SMS-shelfmark: 13846
!!!SMS-shelfwork: 057 G
!!!SMS-variant:
!!!SMS-altvar:
!!!NIFC-rismid: 1001037065
!!!URL-scan: http://repozytorium.nifc.pl/skany/pl-wnifc-nut--13846
!!!ONB-nifc:
!!!OMD: Allegro Mod: quasi Andante
!!!key: g
**kern	**kern	**kern	**text
*part2	*part2	*part1	*part1
*staff3	*staff2	*staff1	*staff1
*I"Fortepian	*I"Fortepian	*I"Głos	*
*Ipiano	*Ipiano	*Ivox	*
*ICklav	*ICklav	*ICvox	*
*IGacmp	*IGacmp	*IGsolo	*
*clefF4	*clefG2	*clefG2	*
*k[b-e-]	*k[b-e-]	*k[b-e-]	*
*g:	*g:	*g:	*
*M2/4	*M2/4	*M2/4	*
=1	=1	=1	=1
!	!	!LO:TX:a:t=D.b.B.T.\n3.	!
8GGG/ 8GG/	8.b-\L 8.gg\	8.gg\	Wcze-
8r	.	.	.
.	16b-\K 16dd\	16dd\	-ra
8GG\ 8G\	8b-\ 8dd\	8dd\	bu-
8r	8b-\J 8dd\	8dd\	-ła
=2	=2	=2	=2
8GG\ 8G\	8e-\L 8a\ 8cc#X\	8cc#X\	ne-
8r	8e-\J 8a\ 8cc#\	8cc#\	-di
8FF\ 8F#X\	8.d/L 8.a/ 8.dd/	8.dd\	toń-
8r	.	.	.
.	16d/Jk 16a/ 16ccn/	16ccn\	-ka
!!LO:LB:g=original
=3	=3	=3	=3
8GG/ 8G/	8g\L 8b-\	8b-\	ny
8r	8f#X\ 8a\	8a/	ni
8GG/L 8G/	8g\ 8b-\	8b-\	po
8EE-/J 8E-/	8g\J 8a/ 8cc\	8cc\	ne
=4	=4	=4	=4
*	*^	*	*
4DD/ 4D/	4dd/	4f#X\ 4a\	4dd\	di-
4DD/ 4D/	4dd/	4f#\ 4a\	4dd\	-tok;
*	*v	*v	*	*
=5	=5	=5	=5
8GG/ 8G/	8.g\L 8.b-\ 8.dd\ 8.gg\	8.gg\	za-
8r	.	.	.
.	16b-\Jk 16dd\	16dd\	-pro-
8GG/ 8G/	8b-\L 8dd\	8dd\	-sy-
8r	8b-\J 8dd\	8dd\	-ła
!!LO:PB:g=original
=6	=6	=6	=6
8EE-/^> 8E-/	8g\^>L 8a\ 8cc#X\	8cc#X\	Ma-
8r	8g\J 8a\ 8cc#\	8cc#\	-ry-
8DD/ 8D/	8.f#X/^<L 8.a/ 8.dd/	8.dd\	-seń-
8r	.	.	.
.	16ccn/Jk	16ccn\	-ka
=7	=7	=7	=7
8GG\ 8G\	8d/L 8b-/	8b-\	ko-
8r	8d/ 8b-/	8b-\	-sy-
.	(16qcc\LL	.	.
.	16qb-\JJ)	.	.
8DD/ 8D/	8c/ 8a/	8a/	-ty
8r	8A/J 8f#X/	8f#X/	bar-
=8	=8	=8	=8
[<4GG|</ [<4D/	4B-|</ 4g/	4g/	-wi-
8GG|</] 8D/]	8B-/ 8g/	8g/	-nok:
8r	8r	8r	.
!!LO:LB:g=original
==9	==9	==9	==9
*tremolo	*	*	*
8F#X\ 8A\ 8d\L	4a\	4a/	oś
8D\	.	.	.
8F#X\ 8A\ 8d\	8.dd\^<L	8.dd\	bi-
8D\J	.	.	.
.	16cc\Jk	16cc\	-da,
=10	=10	=10	=10
8G\ 8B-\ 8d\L	8b-\L	8b-\	ne
8D\	(16b-\^<L	(16b-\LL	du-
.	16a/JJ)	16a\JJ)	.
8G\ 8B-\ 8d\	4g/^<	4g/	ma,
8D\J	.	.	.
=11	=11	=11	=11
8A\ 8c\L	8f#X/L	8f#X/	ko
8D\	8f#/J	8f#/	tru
8A\ 8c\	8d|</L	8d/	lu-
8D\J	(16en/L	16en/LL	-blu
.	16f#/JJ)	16f#/JJ	.
*Xtremolo	*	*	*
=12	=12	=12	=12
4G\ 4B-\	8g/	8g/	wse
.	(16b-\LL	(16b-\LL	ku-
.	16a/JJ)	16a/JJ)	.
8G|>\ 8B-\	8g/	8g/	ma.
8r	8r	8r	.
==	==	==	==
*-	*-	*-	*-
!!!system-decoration: s1,{(s2,s3)}
!!!RDF**kern: < = below
!!!RDF**kern: > = above
!!!RDF**kern: | = vertical stroke
!!!ENC: Marta Chmielewska
!!!END: 2021-11-10
